X:1
T:Den Fromme Fru Signe
T:Den Fromme Fru Signe
T:Nedtegnet med siffernoter av Ole Andersen Mærlie (1873)
L:1/8
Q:1/4=70
M:3/4
K:C
V:1 treble nm="Piano" snm="Pno."
V:1
 E2 |"C" (CE) G2 G2 | (EF) G2 G2 |"F" (AB) c2 A2 |"C" G4 G2 |"F" c3 B c2 |"G" (dc) B3 A | %7
w: Den|from * me Fru|Sig- * ne paa|Sot- te- seng *|laa. Han|Es- ben han|sør- * ged for|
 G3 A"G7" (GF) |"C" E2"G" D2"C" E2 | (CE) G2 G2 | (EF) G2 G2 |"F" (AB) c2 A2 |"C" G4 G2 | %13
w: hen- de saa *|saa- re. Vær|trø- * stig hun|bad * ham og|græd * ik- ke|saa. De|
"F" c3 B c2 |"G" (dc) B3 A | (G3 A)"G7" GF |"C" E2"G" D2"C" E2 | G3 E G2 |"F" A3 F A2 | %19
w: smer- ter mig|mer * end min|Død * di- ne|Taa- re. Giv|snart dig en|lyk- ke- lig|
"G" G3 B d2 |"C" c4 G2 | c3 G"G7" F2 |"C" (EF) G2"F" A2 |"G" (GF) E2 D2 |"C" C4 |] %25
w: Ven i hvis|Favn. Du|glem- mer din|sorg * og for-|lin- * drer dit|Savn.|

